svg/seat_legroom_normal.svg

<svg xmlns="http://www.w3.org/2000/svg" viewBox="0 0 24 24"><path d="M5 12V3H3v9a5 5 0 0 0 5 5h6v-2H8a3 3 0 0 1-3-3m15.5 6H19v-7a2 2 0 0 0-2-2h-5V3H6v8a3 3 0 0 0 3 3h7v7h4.5a1.5 1.5 0 0 0 1.5-1.5 1.5 1.5 0 0 0-1.5-1.5"/></svg>

<?xml version="1.0" encoding="UTF-8"?><!DOCTYPE svg PUBLIC "-//W3C//DTD SVG 1.1//EN" "http://www.w3.org/Graphics/SVG/1.1/DTD/svg11.dtd"><svg xmlns="http://www.w3.org/2000/svg" xmlns:xlink="http://www.w3.org/1999/xlink" version="1.1" id="mdi-seat-legroom-normal" width="24" height="24" viewBox="0 0 24 24"><path d="M5,12V3H3V12A5,5 0 0,0 8,17H14V15H8A3,3 0 0,1 5,12M20.5,18H19V11A2,2 0 0,0 17,9H12V3H6V11A3,3 0 0,0 9,14H16V21H20.5A1.5,1.5 0 0,0 22,19.5A1.5,1.5 0 0,0 20.5,18Z" /></svg>
